!!!OTL: Lorelei.
!!!OTL-incipit:
!!!COM: Fr. Silcher
!!!ARE: Europa, Mitteleuropa, Deutschland
!!!SCT: F0821
!!!YEM: Copyright 1995, estate of Helmut Schaffrath.
**kern	**text
*ICvox	*
*M6/8	*
*k[]	*
*C:	*
!LO:TX:a:t=Gehend.	!
!LO:TX:a:t=P:only the highest voice encoded:problem	!
!LO:TX:a:t=Ges. v. H. Langer.	!
{8g	1._Jch
=1	=1
8.g	weiß
16a	nicht,
8g	was
(>8cc/	ſoll
8b/)	es
8a	be-
=2	=2
4.g	-deuten,
4f}	.
{8f	daß
=3	=3
4e	ich
8e	ſo
4d	trau-
8d	-rig
=4	=4
[>4.e	bin?
8e]	.
8r}	.
{8g	Ein
=5	=5
8.g	Mährchen
16a	.
8g	aus
8cc/L	al-
8bJ	.
8a	-ten
=6	=6
4.g	Ʒei-
4f}	-ten,
{8f	das
=7	=7
4e	kommt
8e	mir
8g	nicht
8f	aus
8d	dem
=8	=8
[>4.c	Sinn.
8c]	.
8r}	.
{8e	Die
=9	=9
8.dL	Luft
16eJ	.
8d	iſt
8g	kühl
8d	und
8d	es
=10	=10
4.b/	dunkelt,
4a}	.
{8a	und
=11	=11
4g	ru-
8g	-hig
(8f#L	fließt
8gJ)	.
8a	der
=12	=12
[>4.g	Rhein;
4g]}	.
{8g	der
=13	=13
(>8.g	Gi-
16a/)	-pfel
8g	des
8cc/L	Ber-
8bJ	.
8a	-ges
=14	=14
(>4g	fun-
8ee/)	.
4dd/}	-kelt
{8dd/	im
=15	=15
4cc/	A-
8cc/	-bend-
8b/L	-ſon-
8aJ	.
8b/	-nen-
=16	=16
[>4.cc/	-ſchein.
8cc/]	.
8r}	.
==	==
!!!AGN: erzaehlendes Volks - Lied, Ballade, Lorelei
!!!ONB: ESAC (Essen Associative Code) Database: FINK
!!!AMT: compound duple
!!!AIN: vox
!!!EED: Helmut Schaffrath
!!!EEV: 1.0
!!Text: H. Heine.
!!!GTL: Romanzen und Balladen
!!!source: Musikalischer Hausschatz der Deutschen. Eine Sammlung von über 1000 Liedern und Gesängen mit Singstimmen und Klavierbegleitung. Leipzig, Litterarisches Verlags-Haus.
!!!page: 577
!!!URL-scan: https://www.digitale-sammlungen.de/en/view/bsb11144622?page=557
!!!ENC: Anna Maria Matuszewska
!!!EEV: 2024/07/08
*-	*-